X:1
T:Kilauea, 11.10.11.10 D
T:Kilauea, 11.10.11.10 D
T:Charles Converse & Ira Sankey, 1880
T:Public Domain Courtesy of the Cyber Hymnal™
C:Charles Converse & Ira Sankey, 1880
Z:Public Domain
Z:Courtesy of the Cyber Hymnal™
%%score ( 1 2 ) ( 3 4 )
L:1/8
Q:1/4=94
M:4/4
K:D
V:1 treble 
V:2 treble 
V:3 bass 
V:4 bass 
V:1
 [DF]2 [DF]>[A,E] [A,D]3 [CE] | [DF][FA][GB][Gd] [FA]2 [DF]2 | [DF]2 [DF]>[A,E] [A,D]3 [CE] | %3
 [DF][DB][DA][DF] [CE]4 | [DF]2 [DF]>[A,E] [A,D]3 [CE] | [DF][FA][GB][Gd] [FA]2 [DF]2 | %6
 [FA]2 [GB][FA] [FA][DF]D[DE] | [DF]2 E2 [A,D]4 | [DA]2 [GB][Gc] [Fd]3 [FA] | %9
 [GB]A[GB][Gc] [Fd]2 [FA]2 | [Fd]2 [Fd][Ec] [Fd][DA][CG][DF] | [DB]2 [DE]2 [CE]4 | %12
 [DF]2 [DF][CE] [A,D]3 [CE] | [DF][FA][GB][Gd] [FA]2 [DF]2 | [FA]2 [GB][FA] [DF][FA][GB][Gd] | %15
 [Fd]2 c2 [Fd]4 |] %16
V:2
 x8 | x8 | x8 | x8 | x8 | x8 | x6 D x | x2 (CA,) x4 | x8 | x A x6 | x8 | x8 | x8 | x8 | x8 | %15
 x2 (EG) x4 |] %16
V:3
 [D,A,]2 [D,A,]>[D,G,] [D,F,]3 [A,,A,] | [D,A,][D,D][D,D][D,B,] [D,D]2 [D,A,]2 | %2
 [D,A,]2 [D,A,]>[D,G,] [D,F,]3 [A,,A,] | [D,A,][D,G,][D,F,][D,A,] [A,,A,]4 | %4
 [D,A,]2 [D,A,]>[D,G,] [D,F,]3 [A,,A,] | [D,A,][D,D][D,D][D,B,] [D,D]2 [D,A,]2 | %6
 [D,D]2 [D,D][D,D] [D,D][D,A,][F,D][G,B,] | A,2 [A,,G,]2 [D,F,]4 | %8
 [F,D]2 [G,D][E,A,] [D,A,]3 [D,D] | [G,D][F,D][G,D][E,A,] [D,A,]2 [D,D]2 | %10
 [D,A,]2 [D,A,][D,A,] [F,A,][F,A,][E,A,][D,A,] | [G,,G,]2 [^G,,B,]2 [A,,A,]4 | %12
 [D,A,]2 [D,A,][A,,G,] [D,F,]3 [A,,A,] | [D,A,][D,D][D,D][D,B,] [D,D]2 [D,A,]2 | %14
 [D,D]2 [D,D][D,D] [D,A,][D,D][G,D][G,B,] | A,2 [A,,A,]2 [D,A,]4 |] %16
V:4
 x8 | x8 | x8 | x8 | x8 | x8 | x8 | A,2 x6 | x8 | x8 | x8 | x8 | x8 | x8 | x8 | A,2 x6 |] %16

